assets/images/card/scheme.svg

<svg width="475" height="384" viewBox="0 0 475 384" fill="none" xmlns="http://www.w3.org/2000/svg">
<path d="M135.97 15V3.75H142.649V15H140.848V5.39795H137.771V15H135.97ZM150.457 14.165C149.871 14.8193 149.043 15.1465 147.974 15.1465C146.905 15.1465 146.075 14.8169 145.484 14.1577C144.893 13.4985 144.598 12.5293 144.598 11.25V7.5C144.598 6.2207 144.893 5.25146 145.484 4.59229C146.075 3.93311 146.905 3.60352 147.974 3.60352C149.043 3.60352 149.871 3.93311 150.457 4.59229C151.048 5.24658 151.343 6.21582 151.343 7.5V11.25C151.343 12.5342 151.048 13.5059 150.457 14.165ZM147.974 13.4985C148.492 13.4985 148.882 13.3276 149.146 12.9858C149.414 12.6392 149.549 12.0605 149.549 11.25V7.5C149.549 6.68945 149.417 6.11328 149.153 5.77148C148.89 5.4248 148.496 5.25146 147.974 5.25146C147.456 5.25146 147.063 5.4248 146.795 5.77148C146.531 6.11328 146.399 6.68945 146.399 7.5V11.25C146.399 12.0605 146.531 12.6392 146.795 12.9858C147.058 13.3276 147.452 13.4985 147.974 13.4985ZM159.217 17.0215V15H153.892V17.0215H152.244V13.3521H153.05C153.352 12.688 153.548 11.7285 153.636 10.4736C153.728 9.21875 153.765 6.97754 153.745 3.75H159.817V13.3521H160.865V17.0215H159.217ZM155.108 11.8799C155.01 12.5049 154.886 12.9956 154.734 13.3521H158.016V5.39795H155.393C155.384 8.62061 155.288 10.7812 155.108 11.8799ZM161.626 15L163.955 3.75H166.658L168.98 15H167.163L166.673 12.4512H163.941L163.443 15H161.626ZM164.256 10.8032H166.358L165.303 5.3833L164.256 10.8032ZM172.979 9.04541C173.423 9.04541 173.811 9.01123 174.143 8.94287V3.75H175.945V15H174.143V10.5615C173.738 10.6494 173.269 10.6934 172.737 10.6934C171.565 10.6934 170.706 10.4297 170.159 9.90234C169.617 9.37012 169.346 8.50342 169.346 7.30225V3.75H171.148V7.30225C171.148 7.95166 171.299 8.40576 171.602 8.66455C171.91 8.91846 172.369 9.04541 172.979 9.04541ZM177.139 15L179.468 3.75H182.171L184.493 15H182.676L182.185 12.4512H179.453L178.955 15H177.139ZM179.768 10.8032H181.87L180.816 5.3833L179.768 10.8032ZM143.77 34V24.2368L141.792 34H139.617L137.625 24.1636V34H135.97V22.75H139.031L140.774 31.3926L142.452 22.75H145.572V34H143.77ZM146.773 34L149.102 22.75H151.805L154.126 34H152.31L151.819 31.4512H149.087L148.589 34H146.773ZM149.402 29.8032H151.504L150.45 24.3833L149.402 29.8032ZM153.965 24.3979V22.75H160.176V24.3979H157.972V34H156.177V24.3979H153.965ZM161.37 34V22.75H166.534V24.3979H163.172V27.4009H166.233V29.0488H163.172V32.3521H166.534V34H161.37ZM168.182 34V22.75H171.47C172.422 22.75 173.186 23.0186 173.763 23.5557C174.344 24.0928 174.634 24.8496 174.634 25.8262V26.5732C174.634 27.5938 174.344 28.3872 173.763 28.9536C173.182 29.52 172.417 29.8032 171.47 29.8032H169.983V34H168.182ZM171.316 24.3979H169.983V28.1479H171.316C172.327 28.1479 172.832 27.5742 172.832 26.4268V25.9727C172.832 24.9229 172.327 24.3979 171.316 24.3979ZM177.791 22.75V32.1396L180.215 22.75H182.889V34H181.241V24.6104L178.809 34H176.136V22.75H177.791ZM184.082 34L186.411 22.75H189.114L191.436 34H189.62L189.129 31.4512H186.397L185.899 34H184.082ZM186.712 29.8032H188.814L187.759 24.3833L186.712 29.8032ZM193.12 31.4512C193.208 31.0898 193.265 30.2354 193.289 28.8877C193.318 27.5352 193.333 25.4893 193.333 22.75H199.375V34H197.581V24.3979H194.981C194.981 27.9282 194.912 30.3086 194.776 31.5391C194.668 32.4521 194.439 33.0918 194.087 33.458C193.736 33.8193 193.169 34 192.388 34H192.176V32.3521H192.242C192.51 32.3521 192.705 32.2764 192.828 32.125C192.954 31.9688 193.052 31.7441 193.12 31.4512ZM200.577 34L202.906 22.75H205.608L207.93 34H206.114L205.623 31.4512H202.891L202.393 34H200.577ZM203.206 29.8032H205.308L204.253 24.3833L203.206 29.8032Z" fill="#0000BD"/>
<path d="M215.397 350.871V345.92H212.248V350.871H210.446V339.621H212.248V344.272H215.397V339.621H217.199V350.871H215.397ZM219.293 350.871V339.621H224.457V341.269H221.095V344.272H224.157V345.92H221.095V349.223H224.457V350.871H219.293ZM233.905 350.871V341.108L231.928 350.871H229.752L227.76 341.035V350.871H226.105V339.621H229.167L230.91 348.264L232.587 339.621H235.707V350.871H233.905ZM236.908 350.871L239.237 339.621H241.94L244.262 350.871H242.445L241.955 348.322H239.223L238.725 350.871H236.908ZM239.538 346.674H241.64L240.585 341.254L239.538 346.674ZM245.456 350.871V339.621H250.546V341.269H247.257V350.871H245.456ZM256.911 350.871V345.92H253.761V350.871H251.959V339.621H253.761V344.272H256.911V339.621H258.712V350.871H256.911ZM262.462 339.621V349.011L264.887 339.621H267.56V350.871H265.912V341.481L263.48 350.871H260.807V339.621H262.462ZM268.754 341.269V339.621H274.965V341.269H272.76V350.871H270.966V341.269H268.754ZM281.11 350.871V345.92H277.96V350.871H276.159V339.621H277.96V344.272H281.11V339.621H282.912V350.871H281.11ZM291.459 347.348C291.459 348.374 291.149 349.218 290.529 349.882C289.914 350.542 289.054 350.871 287.951 350.871H285.006V339.621H286.808V343.518H287.951C289.069 343.518 289.933 343.825 290.543 344.44C291.154 345.051 291.459 345.869 291.459 346.894V347.348ZM294.381 350.871H292.587V339.621H294.381V350.871ZM287.709 345.173H286.808V349.223H287.709C288.417 349.223 288.917 349.052 289.21 348.71C289.508 348.364 289.657 347.858 289.657 347.194V347.048C289.657 346.438 289.508 345.974 289.21 345.656C288.917 345.334 288.417 345.173 287.709 345.173ZM300.827 336.318H302.255C302.255 337.016 302.04 337.568 301.61 337.973C301.181 338.374 300.609 338.574 299.896 338.574C299.193 338.574 298.627 338.374 298.197 337.973C297.772 337.568 297.56 337.016 297.56 336.318H298.981C298.981 336.645 299.066 336.892 299.237 337.058C299.413 337.219 299.633 337.299 299.896 337.299C300.175 337.299 300.399 337.219 300.57 337.058C300.741 336.892 300.827 336.645 300.827 336.318ZM298.131 339.621V349.011L300.556 339.621H303.229V350.871H301.581V341.481L299.149 350.871H296.476V339.621H298.131ZM218.246 369.871V360.108L216.269 369.871H214.093L212.101 360.035V369.871H210.446V358.621H213.507L215.25 367.264L216.928 358.621H220.048V369.871H218.246ZM221.249 369.871L223.578 358.621H226.281L228.603 369.871H226.786L226.295 367.322H223.563L223.065 369.871H221.249ZM223.878 365.674H225.98L224.926 360.254L223.878 365.674ZM228.441 360.269V358.621H234.652V360.269H232.448V369.871H230.653V360.269H228.441ZM235.846 369.871V358.621H241.01V360.269H237.648V363.272H240.709V364.92H237.648V368.223H241.01V369.871H235.846ZM242.658 369.871V358.621H245.946C246.898 358.621 247.663 358.89 248.239 359.427C248.82 359.964 249.11 360.721 249.11 361.697V362.444C249.11 363.465 248.82 364.258 248.239 364.825C247.658 365.391 246.894 365.674 245.946 365.674H244.459V369.871H242.658ZM245.792 360.269H244.459V364.019H245.792C246.803 364.019 247.309 363.445 247.309 362.298V361.844C247.309 360.794 246.803 360.269 245.792 360.269ZM252.267 358.621V368.011L254.691 358.621H257.365V369.871H255.717V360.481L253.285 369.871H250.612V358.621H252.267ZM258.559 369.871L260.888 358.621H263.59L265.912 369.871H264.096L263.605 367.322H260.873L260.375 369.871H258.559ZM261.188 365.674H263.29L262.235 360.254L261.188 365.674ZM267.597 367.322C267.685 366.961 267.741 366.106 267.765 364.759C267.794 363.406 267.809 361.36 267.809 358.621H273.852V369.871H272.057V360.269H269.457C269.457 363.799 269.389 366.18 269.252 367.41C269.145 368.323 268.915 368.963 268.563 369.329C268.212 369.69 267.646 369.871 266.864 369.871H266.652V368.223H266.718C266.986 368.223 267.182 368.147 267.304 367.996C267.431 367.84 267.528 367.615 267.597 367.322Z" fill="#DF0112"/>
<path d="M384.543 263V253.237L382.565 263H380.39L378.398 253.164V263H376.743V251.75H379.804L381.547 260.393L383.225 251.75H386.345V263H384.543ZM387.546 263L389.875 251.75H392.578L394.899 263H393.083L392.592 260.451H389.86L389.362 263H387.546ZM390.175 258.803H392.277L391.223 253.383L390.175 258.803ZM396.093 263V251.75H401.184V253.398H397.895V263H396.093ZM407.548 263V258.049H404.399V263H402.597V251.75H404.399V256.401H407.548V251.75H409.35V263H407.548ZM413.1 251.75V261.14L415.524 251.75H418.198V263H416.55V253.61L414.118 263H411.445V251.75H413.1ZM419.392 253.398V251.75H425.603V253.398H423.398V263H421.604V253.398H419.392ZM431.748 263V258.049H428.598V263H426.796V251.75H428.598V256.401H431.748V251.75H433.549V263H431.748ZM442.097 259.477C442.097 260.502 441.787 261.347 441.167 262.011C440.551 262.67 439.692 263 438.588 263H435.644V251.75H437.446V255.646H438.588C439.707 255.646 440.571 255.954 441.181 256.569C441.792 257.18 442.097 257.998 442.097 259.023V259.477ZM445.019 263H443.225V251.75H445.019V263ZM438.347 257.302H437.446V261.352H438.347C439.055 261.352 439.555 261.181 439.848 260.839C440.146 260.493 440.295 259.987 440.295 259.323V259.177C440.295 258.566 440.146 258.103 439.848 257.785C439.555 257.463 439.055 257.302 438.347 257.302ZM451.464 248.447H452.893C452.893 249.145 452.678 249.697 452.248 250.102C451.818 250.502 451.247 250.703 450.534 250.703C449.831 250.703 449.265 250.502 448.835 250.102C448.41 249.697 448.198 249.145 448.198 248.447H449.619C449.619 248.774 449.704 249.021 449.875 249.187C450.051 249.348 450.271 249.428 450.534 249.428C450.813 249.428 451.037 249.348 451.208 249.187C451.379 249.021 451.464 248.774 451.464 248.447ZM448.769 251.75V261.14L451.193 251.75H453.867V263H452.219V253.61L449.787 263H447.114V251.75H448.769ZM384.543 282V272.237L382.565 282H380.39L378.398 272.164V282H376.743V270.75H379.804L381.547 279.393L383.225 270.75H386.345V282H384.543ZM387.546 282L389.875 270.75H392.578L394.899 282H393.083L392.592 279.451H389.86L389.362 282H387.546ZM390.175 277.803H392.277L391.223 272.383L390.175 277.803ZM394.738 272.398V270.75H400.949V272.398H398.745V282H396.95V272.398H394.738ZM402.143 282V270.75H407.307V272.398H403.945V275.401H407.006V277.049H403.945V280.352H407.307V282H402.143ZM408.955 282V270.75H412.243C413.195 270.75 413.96 271.019 414.536 271.556C415.117 272.093 415.407 272.85 415.407 273.826V274.573C415.407 275.594 415.117 276.387 414.536 276.954C413.955 277.52 413.19 277.803 412.243 277.803H410.756V282H408.955ZM412.089 272.398H410.756V276.148H412.089C413.1 276.148 413.605 275.574 413.605 274.427V273.973C413.605 272.923 413.1 272.398 412.089 272.398ZM418.564 270.75V280.14L420.988 270.75H423.662V282H422.014V272.61L419.582 282H416.909V270.75H418.564ZM424.855 282L427.185 270.75H429.887L432.209 282H430.393L429.902 279.451H427.17L426.672 282H424.855ZM427.485 277.803H429.587L428.532 272.383L427.485 277.803ZM433.894 279.451C433.981 279.09 434.038 278.235 434.062 276.888C434.091 275.535 434.106 273.489 434.106 270.75H440.148V282H438.354V272.398H435.754C435.754 275.928 435.686 278.309 435.549 279.539C435.441 280.452 435.212 281.092 434.86 281.458C434.509 281.819 433.942 282 433.161 282H432.949V280.352H433.015C433.283 280.352 433.479 280.276 433.601 280.125C433.728 279.969 433.825 279.744 433.894 279.451Z" fill="#DF0112"/>
<path d="M337.252 253.222L325.356 236.465C309.641 263.422 282.386 282.92 250.362 288V319.011" stroke="#0000BD"/>
<path d="M290.083 263.678C282.115 269.176 273.358 273.613 264.016 276.784" stroke="#0000BD"/>
<path d="M67.8926 90.5V121.472L143 180" stroke="#0000BD"/>
<circle cx="233.604" cy="183.09" r="91.2346" fill="#DF0112"/>
<circle cx="233.605" cy="183.09" r="83.2869" fill="#DF0112" stroke="#0000BD"/>
<circle cx="233.604" cy="183.091" r="54.7373" fill="#F6F6F6" stroke="#0000BD"/>
<path d="M150.318 183.09C150.318 137.092 187.607 99.8027 233.605 99.8027C279.603 99.8027 316.892 137.092 316.892 183.09C316.892 187.24 316.588 191.32 316.002 195.307C315.641 195.091 315.133 194.788 314.489 194.412C313.095 193.595 311.065 192.429 308.523 191.03C303.438 188.233 296.3 184.503 288.085 180.772C271.676 173.321 250.898 165.832 233.605 165.832C216.312 165.832 195.534 173.321 179.125 180.772C170.911 184.503 163.772 188.233 158.688 191.03C156.145 192.429 154.116 193.595 152.721 194.412C152.078 194.788 151.569 195.091 151.208 195.307C150.622 191.32 150.318 187.24 150.318 183.09Z" fill="#F6F6F6" stroke="#0000BD"/>
<circle cx="233.605" cy="183.089" r="11.2922" fill="#v" stroke="#0000BD"/>
<path d="M17 3.72388V90.614H112.579V3.72388" stroke="#0000BD"/>
<line x1="64.5697" y1="3.72412" x2="64.5697" y2="42.6508" stroke="#0000BD"/>
<path d="M71.8869 42.7275L64.6914 55.1903L57.496 42.7275L71.8869 42.7275Z" stroke="#0000BD"/>
<line y1="-0.5" x2="55.9282" y2="-0.5" transform="matrix(0.549078 0.427723 -0.456855 0.551785 76.9563 146.858)" stroke="#0000BD"/>
<path d="M111.93 164.596L118.566 178.769L103.565 175.224L111.93 164.596Z" stroke="#0000BD"/>
<line x1="232.498" y1="288" x2="232.498" y2="305.368" stroke="#DF0112"/>
<path d="M239.57 305.235L232.365 317.984L225.161 305.235L239.57 305.235Z" stroke="#DF0112"/>
<path d="M356.324 270.48L349.665 282.013L343.006 270.48L356.324 270.48Z" stroke="#DF0112"/>
<path d="M295.006 259.172L291.913 266.488L287.124 260.151L295.006 259.172Z" stroke="#0000BD"/>
<path d="M331.046 226.535L349.665 251.981V269.98" stroke="#DF0112"/>
<path d="M213 319L213 288C213 288 149.103 277.916 131.323 207.76L38 133L38 91" stroke="#0000BD"/>
</svg>

<svg width="475" height="384" fill="none" xmlns="http://www.w3.org/2000/svg"><path d="M135.97 15V3.75h6.679V15h-1.801V5.398h-3.077V15h-1.801zm14.487-.835c-.586.654-1.414.982-2.483.982-1.069 0-1.899-.33-2.49-.99-.591-.659-.886-1.628-.886-2.907V7.5c0-1.28.295-2.249.886-2.908.591-.659 1.421-.988 2.49-.988 1.069 0 1.897.33 2.483.988.591.655.886 1.624.886 2.908v3.75c0 1.284-.295 2.256-.886 2.915zm-2.483-.666c.518 0 .908-.171 1.172-.513.268-.347.403-.926.403-1.736V7.5c0-.81-.132-1.387-.396-1.729-.263-.346-.657-.52-1.179-.52-.518 0-.911.174-1.179.52-.264.342-.396.918-.396 1.729v3.75c0 .81.132 1.39.396 1.736.263.342.657.512 1.179.512zm11.243 3.522V15h-5.325v2.021h-1.648v-3.669h.806c.302-.664.498-1.623.586-2.878.092-1.255.129-3.496.109-6.724h6.072v9.602h1.048v3.67h-1.648zm-4.109-5.141c-.098.625-.222 1.116-.374 1.472h3.282V5.398h-2.623c-.009 3.223-.105 5.383-.285 6.482zm6.518 3.12l2.329-11.25h2.703L168.98 15h-1.817l-.49-2.549h-2.732L163.443 15h-1.817zm2.63-4.197h2.102l-1.055-5.42-1.047 5.42zm8.723-1.758c.444 0 .832-.034 1.164-.102V3.75h1.802V15h-1.802v-4.438a6.681 6.681 0 01-1.406.131c-1.172 0-2.031-.263-2.578-.79-.542-.533-.813-1.4-.813-2.6V3.75h1.802v3.552c0 .65.151 1.104.454 1.363.308.253.767.38 1.377.38zm4.16 5.955l2.329-11.25h2.703L184.493 15h-1.817l-.491-2.549h-2.732L178.955 15h-1.816zm2.629-4.197h2.102l-1.054-5.42-1.048 5.42zM143.77 34v-9.763L141.792 34h-2.175l-1.992-9.836V34h-1.655V22.75h3.061l1.743 8.643 1.678-8.643h3.12V34h-1.802zm3.003 0l2.329-11.25h2.703L154.126 34h-1.816l-.491-2.549h-2.732L148.589 34h-1.816zm2.629-4.197h2.102l-1.054-5.42-1.048 5.42zm4.563-5.405V22.75h6.211v1.648h-2.204V34h-1.795v-9.602h-2.212zM161.37 34V22.75h5.164v1.648h-3.362V27.4h3.061v1.648h-3.061v3.303h3.362V34h-5.164zm6.812 0V22.75h3.288c.952 0 1.716.269 2.293.806.581.537.871 1.294.871 2.27v.747c0 1.02-.29 1.814-.871 2.38-.581.567-1.346.85-2.293.85h-1.487V34h-1.801zm3.134-9.602h-1.333v3.75h1.333c1.011 0 1.516-.574 1.516-1.721v-.454c0-1.05-.505-1.575-1.516-1.575zm6.475-1.648v9.39l2.424-9.39h2.674V34h-1.648v-9.39L178.809 34h-2.673V22.75h1.655zM184.082 34l2.329-11.25h2.703L191.436 34h-1.816l-.491-2.549h-2.732L185.899 34h-1.817zm2.63-4.197h2.102l-1.055-5.42-1.047 5.42zm6.408 1.648c.088-.361.145-1.216.169-2.563.029-1.353.044-3.399.044-6.138h6.042V34h-1.794v-9.602h-2.6c0 3.53-.069 5.91-.205 7.141-.108.913-.337 1.553-.689 1.919-.351.361-.918.542-1.699.542h-.212v-1.648h.066c.268 0 .463-.076.586-.227.126-.156.224-.38.292-.674zM200.577 34l2.329-11.25h2.702L207.93 34h-1.816l-.491-2.549h-2.732L202.393 34h-1.816zm2.629-4.197h2.102l-1.055-5.42-1.047 5.42z" fill="#0000BD"/><path d="M215.397 350.871v-4.951h-3.149v4.951h-1.802v-11.25h1.802v4.651h3.149v-4.651h1.802v11.25h-1.802zm3.896 0v-11.25h5.164v1.648h-3.362v3.003h3.062v1.648h-3.062v3.303h3.362v1.648h-5.164zm14.612 0v-9.763l-1.977 9.763h-2.176l-1.992-9.836v9.836h-1.655v-11.25h3.062l1.743 8.643 1.677-8.643h3.12v11.25h-1.802zm3.003 0l2.329-11.25h2.703l2.322 11.25h-1.817l-.49-2.549h-2.732l-.498 2.549h-1.817zm2.63-4.197h2.102l-1.055-5.42-1.047 5.42zm5.918 4.197v-11.25h5.09v1.648h-3.289v9.602h-1.801zm11.455 0v-4.951h-3.15v4.951h-1.802v-11.25h1.802v4.651h3.15v-4.651h1.801v11.25h-1.801zm5.551-11.25v9.39l2.425-9.39h2.673v11.25h-1.648v-9.39l-2.432 9.39h-2.673v-11.25h1.655zm6.292 1.648v-1.648h6.211v1.648h-2.205v9.602h-1.794v-9.602h-2.212zm12.356 9.602v-4.951h-3.15v4.951h-1.801v-11.25h1.801v4.651h3.15v-4.651h1.802v11.25h-1.802zm10.349-3.523c0 1.026-.31 1.87-.93 2.534-.615.66-1.475.989-2.578.989h-2.945v-11.25h1.802v3.897h1.143c1.118 0 1.982.307 2.592.922.611.611.916 1.429.916 2.454v.454zm2.922 3.523h-1.794v-11.25h1.794v11.25zm-6.672-5.698h-.901v4.05h.901c.708 0 1.208-.171 1.501-.513.298-.346.447-.852.447-1.516v-.146c0-.61-.149-1.074-.447-1.392-.293-.322-.793-.483-1.501-.483zm13.118-8.855h1.428c0 .698-.215 1.25-.645 1.655-.429.401-1.001.601-1.714.601-.703 0-1.269-.2-1.699-.601-.425-.405-.637-.957-.637-1.655h1.421c0 .327.085.574.256.74a.94.94 0 00.659.241c.279 0 .503-.08.674-.241.171-.166.257-.413.257-.74zm-2.696 3.303v9.39l2.425-9.39h2.673v11.25h-1.648v-9.39l-2.432 9.39h-2.673v-11.25h1.655zm-79.885 30.25v-9.763l-1.977 9.763h-2.176l-1.992-9.836v9.836h-1.655v-11.25h3.061l1.743 8.643 1.678-8.643h3.12v11.25h-1.802zm3.003 0l2.329-11.25h2.703l2.322 11.25h-1.817l-.491-2.549h-2.732l-.498 2.549h-1.816zm2.629-4.197h2.102l-1.054-5.42-1.048 5.42zm4.563-5.405v-1.648h6.211v1.648h-2.204v9.602h-1.795v-9.602h-2.212zm7.405 9.602v-11.25h5.164v1.648h-3.362v3.003h3.061v1.648h-3.061v3.303h3.362v1.648h-5.164zm6.812 0v-11.25h3.288c.952 0 1.717.269 2.293.806.581.537.871 1.294.871 2.27v.747c0 1.021-.29 1.814-.871 2.381-.581.566-1.345.849-2.293.849h-1.487v4.197h-1.801zm3.134-9.602h-1.333v3.75h1.333c1.011 0 1.517-.574 1.517-1.721v-.454c0-1.05-.506-1.575-1.517-1.575zm6.475-1.648v9.39l2.424-9.39h2.674v11.25h-1.648v-9.39l-2.432 9.39h-2.673v-11.25h1.655zm6.292 11.25l2.329-11.25h2.702l2.322 11.25h-1.816l-.491-2.549h-2.732l-.498 2.549h-1.816zm2.629-4.197h2.102l-1.055-5.42-1.047 5.42zm6.409 1.648c.088-.361.144-1.216.168-2.563.029-1.353.044-3.399.044-6.138h6.043v11.25h-1.795v-9.602h-2.6c0 3.53-.068 5.911-.205 7.141-.107.913-.337 1.553-.689 1.919-.351.361-.917.542-1.699.542h-.212v-1.648h.066c.268 0 .464-.076.586-.227.127-.156.224-.381.293-.674zM384.543 263v-9.763L382.565 263h-2.175l-1.992-9.836V263h-1.655v-11.25h3.061l1.743 8.643 1.678-8.643h3.12V263h-1.802zm3.003 0l2.329-11.25h2.703l2.321 11.25h-1.816l-.491-2.549h-2.732l-.498 2.549h-1.816zm2.629-4.197h2.102l-1.054-5.42-1.048 5.42zm5.918 4.197v-11.25h5.091v1.648h-3.289V263h-1.802zm11.455 0v-4.951h-3.149V263h-1.802v-11.25h1.802v4.651h3.149v-4.651h1.802V263h-1.802zm5.552-11.25v9.39l2.424-9.39h2.674V263h-1.648v-9.39l-2.432 9.39h-2.673v-11.25h1.655zm6.292 1.648v-1.648h6.211v1.648h-2.205V263h-1.794v-9.602h-2.212zM431.748 263v-4.951h-3.15V263h-1.802v-11.25h1.802v4.651h3.15v-4.651h1.801V263h-1.801zm10.349-3.523c0 1.025-.31 1.87-.93 2.534-.616.659-1.475.989-2.579.989h-2.944v-11.25h1.802v3.896h1.142c1.119 0 1.983.308 2.593.923.611.611.916 1.429.916 2.454v.454zm2.922 3.523h-1.794v-11.25h1.794V263zm-6.672-5.698h-.901v4.05h.901c.708 0 1.208-.171 1.501-.513.298-.346.447-.852.447-1.516v-.146c0-.611-.149-1.074-.447-1.392-.293-.322-.793-.483-1.501-.483zm13.117-8.855h1.429c0 .698-.215 1.25-.645 1.655-.43.4-1.001.601-1.714.601-.703 0-1.269-.201-1.699-.601-.425-.405-.637-.957-.637-1.655h1.421c0 .327.085.574.256.74a.94.94 0 00.659.241c.279 0 .503-.08.674-.241.171-.166.256-.413.256-.74zm-2.695 3.303v9.39l2.424-9.39h2.674V263h-1.648v-9.39l-2.432 9.39h-2.673v-11.25h1.655zM384.543 282v-9.763L382.565 282h-2.175l-1.992-9.836V282h-1.655v-11.25h3.061l1.743 8.643 1.678-8.643h3.12V282h-1.802zm3.003 0l2.329-11.25h2.703l2.321 11.25h-1.816l-.491-2.549h-2.732l-.498 2.549h-1.816zm2.629-4.197h2.102l-1.054-5.42-1.048 5.42zm4.563-5.405v-1.648h6.211v1.648h-2.204V282h-1.795v-9.602h-2.212zm7.405 9.602v-11.25h5.164v1.648h-3.362v3.003h3.061v1.648h-3.061v3.303h3.362V282h-5.164zm6.812 0v-11.25h3.288c.952 0 1.717.269 2.293.806.581.537.871 1.294.871 2.27v.747c0 1.021-.29 1.814-.871 2.381-.581.566-1.346.849-2.293.849h-1.487V282h-1.801zm3.134-9.602h-1.333v3.75h1.333c1.011 0 1.516-.574 1.516-1.721v-.454c0-1.05-.505-1.575-1.516-1.575zm6.475-1.648v9.39l2.424-9.39h2.674V282h-1.648v-9.39l-2.432 9.39h-2.673v-11.25h1.655zm6.291 11.25l2.33-11.25h2.702l2.322 11.25h-1.816l-.491-2.549h-2.732l-.498 2.549h-1.817zm2.63-4.197h2.102l-1.055-5.42-1.047 5.42zm6.409 1.648c.087-.361.144-1.216.168-2.563.029-1.353.044-3.399.044-6.138h6.042V282h-1.794v-9.602h-2.6c0 3.53-.068 5.911-.205 7.141-.108.913-.337 1.553-.689 1.919-.351.361-.918.542-1.699.542h-.212v-1.648h.066c.268 0 .464-.076.586-.227.127-.156.224-.381.293-.674z" fill="#DF0112"/><path d="M337.252 253.222l-11.896-16.757c-15.715 26.957-42.97 46.455-74.994 51.535v31.011m39.721-55.333a105.744 105.744 0 01-26.067 13.106M67.893 90.5v30.972L143 180" stroke="#0000BD"/><circle cx="233.604" cy="183.09" r="91.235" fill="#DF0112"/><circle cx="233.605" cy="183.09" r="83.287" fill="#DF0112" stroke="#0000BD"/><circle cx="233.604" cy="183.091" r="54.737" fill="#E5E5E5" stroke="#0000BD"/><path d="M150.318 183.09c0-45.998 37.289-83.287 83.287-83.287 45.998 0 83.287 37.289 83.287 83.287 0 4.15-.304 8.23-.89 12.217-.361-.216-.869-.519-1.513-.895a256.848 256.848 0 00-5.966-3.382 302.895 302.895 0 00-20.438-10.258c-16.409-7.451-37.187-14.94-54.48-14.94s-38.071 7.489-54.48 14.94a302.837 302.837 0 00-20.437 10.258 257.312 257.312 0 00-5.967 3.382c-.643.376-1.152.679-1.513.895a83.985 83.985 0 01-.89-12.217z" fill="#E5E5E5" stroke="#0000BD"/><circle cx="233.605" cy="183.089" r="11.292" fill="#v" stroke="#0000BD"/><path d="M17 3.724v86.89h95.579V3.724m-48.009 0v38.927" stroke="#0000BD"/><path d="M71.887 42.727L64.69 55.19l-7.195-12.462h14.39z" stroke="#0000BD"/><path transform="matrix(.54908 .42772 -.45686 .55178 76.956 146.858)" stroke="#0000BD" d="M0-.5h55.928"/><path d="M111.93 164.596l6.636 14.173-15.001-3.545 8.365-10.628z" stroke="#0000BD"/><path stroke="#DF0112" d="M232.498 288v17.368m7.072-.133l-7.205 12.749-7.204-12.749h14.409zm116.754-34.755l-6.659 11.533-6.659-11.533h13.318z"/><path d="M295.006 259.172l-3.093 7.316-4.789-6.337 7.882-.979z" stroke="#0000BD"/><path d="M331.046 226.535l18.619 25.446v17.999" stroke="#DF0112"/><path d="M213 319v-31s-63.897-10.084-81.677-80.24L38 133V91" stroke="#0000BD"/></svg>
